X: 141009
T: IRISH MOLLY O
Q: "Slow."
%R: air
N: This is version 1, for ABC software that doesn't understand voice overlays.
B: James Kerr "Merry Melodies" v.1 p.41 s.0 #9
Z: 2016 John Chambers <jc:trillian.mit.edu>
N: Added flag to last note (A) in bar 7, to match bar 11.
M: 6/8
L: 1/8
K: G
(DE) |\
G3 (d2B) | vG2vB ud2uB | A2G E2E | E3- E2 ud |\
e3 (g2e) | e2d d2e | c2c B2A | B3- B2 |]\
d |\
e3 g2e | e2d d2e | c2c B2A | "^ad lib."[B3e2] d2B |\
A2G A2B | e2d B2G | A2G E2E | E3- E |]
